front/public/static/landing/logos/gray/paddle.svg

<svg fill="none" height="300" viewBox="0 0 600 300" width="600" xmlns="http://www.w3.org/2000/svg" xmlns:xlink="http://www.w3.org/1999/xlink"><clipPath id="a"><path d="m135 100h330v101h-330z"/></clipPath><g clip-path="url(#a)" fill="#364153"><path d="m313.854 99.5264c2.728-.001 5.455.0138 8.183.0443.142 2.4223.043 5.8193.043 8.3203l-.001 15.462.032 51.955-.084.012c-10.544 1.536-9.027.465-8.904-8.441-1.035 1.005-1.916 2.156-2.918 3.198-8.51 8.837-22.396 9.114-32.362 2.388-2.539-1.641-4.247-3.127-6.165-5.494-4.501-5.468-6.619-12.502-5.883-19.534.749-6.99 4.268-13.394 9.774-17.792 6.054-4.822 13.264-6.955 20.981-6.072 7.184.823 12.171 4.655 16.52 10.12.262-8.279-.181-24.851.113-33.8458.004-.1659.433-.2457.671-.3208zm-17.761 69.8216c10.61-1.23 18.208-10.8 16.962-21.367-1.245-10.567-10.86-18.124-21.47-16.873-10.594 1.249-18.169 10.81-16.926 21.362 1.244 10.553 10.837 18.107 21.434 16.878z"/><path d="m377.513 99.6228c1.05-.1941 6.87-.0799 8.356-.0775.364 25.1177-.153 50.5857.045 75.7517-1.361.171-7.53.88-8.392.003-1.036-1.053-.549-6.703-.493-8.467-1.319 1.213-2.404 2.641-3.715 3.909-10.289 9.945-27.28 7.641-36.611-2.427-3.239-3.496-6.571-9.218-6.784-14.166l.127-.108c-.058-1.334.266-7.509-.077-8.283-.129-4.318 4.523-11.509 7.541-14.44 5.332-5.226 12.563-8.075 20.043-7.897 6.36.105 11.297 2.115 15.967 6.492 1.21 1.136 2.312 2.502 3.5 3.725-.1-3.226-.226-8.645-.023-11.826.053-.407.023-1.246.21-1.498l.169.612c-.036.973-.205 10.476-.089 10.841.413-.57.214-9.509.218-10.863.135-1.319.075-7.748.021-9.358-.115-3.405.201-8.721-.013-11.9232zm-17.615 69.7292c10.62-1.208 18.238-10.77 17.006-21.344-1.233-10.574-10.849-18.143-21.463-16.896-10.587 1.245-18.163 10.791-16.934 21.336 1.23 10.546 10.801 18.109 21.391 16.904z"/><path d="m229.185 123.45c.497-.032.996-.047 1.494-.046 6.272.042 11.198 2.003 15.899 6.22 1.38 1.238 2.41 2.574 3.699 3.875.093-2.196-.052-4.452-.003-6.657.035-1.584.479-2.143 2.096-2.142 2.341.001 4.661.121 6.987.328l.031 50.195c-2.583.4-6.486.71-9.014.183-.191-2.117-.134-6.413.02-8.557-1.599 1.419-2.697 3.05-4.617 4.695-4.496 3.38-8.399 5.32-14.166 5.573-7.455.291-14.721-2.386-20.192-7.439-10.831-9.961-11.33-26.899-1.285-37.602 4.961-5.264 11.808-8.363 19.051-8.626zm4.061 45.889c10.634-1.211 18.255-10.801 16.995-21.387s-10.92-18.136-21.544-16.838c-10.562 1.291-18.089 10.844-16.837 21.368 1.253 10.525 10.813 18.061 21.386 16.857z"/><path d="m435.45 123.598c.114-.022.169-.026.284-.033 7.373-.468 13.999.848 19.645 5.92 5.306 4.764 7.723 11.844 8.777 18.727.227 1.485.29 3.94.366 5.493-14.512.219-29.331.02-43.87.031-.184.249-.263.6-.205.911 2.825 15.327 20.975 21.239 31.495 8.95l1.339-1.83c3.062-.121 6.528-.034 9.615.004-.708 1.727-1.497 3.049-2.619 4.557-9.249 12.038-26.896 14.286-38.831 4.933-14.75-11.559-13.393-34.029 2.499-43.765 3.848-2.358 7.024-3.297 11.505-3.898zm-15.042 23.088c5.642.227 12.772.011 18.569.017l10.809.026c1.566.008 4.112.105 5.607.022-.377-5.117-1.954-8.976-5.936-12.412-3.093-2.672-8.271-4.535-12.375-3.992-8.533.416-16.105 7.91-16.674 16.339z"/><path d="m148.333 123.518c4.69-.162 9.589.08 14.178-.045 10.116-.277 18.858-.111 26.63 7.344 5.797 5.561 7.868 10.945 8.19 18.728l.047-2.398c.343 2.044.417 3.961-.009 6.007l-.045-2.019c-.356 7.824-2.639 13.347-8.542 18.84-9.166 8.53-19.867 7.049-31.378 7.046-.219 1.743-.125 4.202-.118 6.022l.017 9.196c.002 1.033-.09 7.335.011 8.018-1.106.261-7.792.274-8.991-.3l-.023-19.96c-.002-3.254-.149-7.843.086-10.968l13.91.007c7.811.029 15.197.95 21.028-5.095 9.591-9.944 5.812-29.121-8.572-32.08-3.218-.661-6.126-.492-9.37-.498-5.45-.15-11.634.263-17.005.001-.122-2.706-.099-5.134-.044-7.846z"/><path d="m395.792 99.5181c2.774.0747 5.563-.0132 8.357.0653.265 2.1766.16 6.9826.162 9.3416l-.016 17.347-.021 33.586c-.002 1.799.195 14.813-.226 15.431l-.695.052c-3.183.381-4.732.374-7.927.05-.382-5.527-.171-12.976-.166-18.629v-31.566l-.002-17.988c.007-2.243-.001-4.772.098-7.025.02-.4327.158-.4714.436-.6649z"/><path d="m148.311 136.389 2.243-.077c.291 1.523.442 2.94 1.019 4.473 1.357 3.609 4.314 6.428 8 7.621 1.223.359 2.83.102 3.738 1.114.345.243.243 1.809-.096 1.94-.314.121-1.11.239-1.46.286-4.012.529-7.352 2.787-9.37 6.279-1.179 2.04-1.455 3.991-1.859 6.304l-2.117-.047c-.238-1.383-.438-2.939-.912-4.287-1.33-3.821-4.558-6.852-8.477-7.903-1.422-.381-3.845.006-3.624-2-.036-.169.254-1.016.373-1.034 2.865-.44 5.092-.846 7.423-2.64 3.599-2.77 4.637-5.727 5.119-10.029z"/><path d="m376.998 121.812c-.173-1.422-.071-21.808.025-22.0693l.49-.1206c.215 3.2019-.101 8.5179.013 11.9229.055 1.611.114 8.04-.021 9.358l-.129.022-.169-.612c-.187.252-.156 1.092-.209 1.499z"/><path d="m148.323 199.957c1.199.574 7.885.56 8.991.299-.053.344-.084.394-.226.716-.818.15-7.421.087-8.42.014-.37-.384-.262-.388-.345-1.029z"/><path d="m329.92 154.149c-.722-1.302-.324-6.776.05-8.391.343.773.019 6.948.077 8.282z"/><path d="m377.376 120.926.129-.022c-.004 1.353.195 10.293-.218 10.863-.116-.365.053-9.869.089-10.841z"/></g></svg>

<svg width="600" height="300" viewBox="0 0 600 300" fill="none" xmlns="http://www.w3.org/2000/svg">
<g clip-path="url(#clip0_3666_2832)">
<path d="M313.854 99.5264C316.582 99.5254 319.309 99.5402 322.037 99.5707C322.179 101.993 322.08 105.39 322.08 107.891L322.079 123.353L322.111 175.308L322.027 175.32C311.483 176.856 313 175.785 313.123 166.879C312.088 167.884 311.207 169.035 310.205 170.077C301.695 178.914 287.809 179.191 277.843 172.465C275.304 170.824 273.596 169.338 271.678 166.971C267.177 161.503 265.059 154.469 265.795 147.437C266.544 140.447 270.063 134.043 275.569 129.645C281.623 124.823 288.833 122.69 296.55 123.573C303.734 124.396 308.721 128.228 313.07 133.693C313.332 125.414 312.889 108.842 313.183 99.8472C313.187 99.6813 313.616 99.6015 313.854 99.5264ZM296.093 169.348C306.703 168.118 314.301 158.548 313.055 147.981C311.81 137.414 302.195 129.857 291.585 131.108C280.991 132.357 273.416 141.918 274.659 152.47C275.903 163.023 285.496 170.577 296.093 169.348Z" fill="#364153"/>
<path d="M377.513 99.6228C378.563 99.4287 384.383 99.5429 385.869 99.5453C386.233 124.663 385.716 150.131 385.914 175.297C384.553 175.468 378.384 176.177 377.522 175.3C376.486 174.247 376.973 168.597 377.029 166.833C375.71 168.046 374.625 169.474 373.314 170.742C363.025 180.687 346.034 178.383 336.703 168.315C333.464 164.819 330.132 159.097 329.919 154.149L330.046 154.041C329.988 152.707 330.312 146.532 329.969 145.758C329.84 141.44 334.492 134.249 337.51 131.318C342.842 126.092 350.073 123.243 357.553 123.421C363.913 123.526 368.85 125.536 373.52 129.913C374.73 131.049 375.832 132.415 377.02 133.638C376.92 130.412 376.794 124.993 376.997 121.812C377.05 121.405 377.02 120.566 377.207 120.314L377.376 120.926C377.34 121.899 377.171 131.402 377.287 131.767C377.7 131.197 377.501 122.258 377.505 120.904C377.64 119.585 377.58 113.156 377.526 111.546C377.411 108.141 377.727 102.825 377.513 99.6228ZM359.898 169.352C370.518 168.144 378.136 158.582 376.904 148.008C375.671 137.434 366.055 129.865 355.441 131.112C344.854 132.357 337.278 141.903 338.507 152.448C339.737 162.994 349.308 170.557 359.898 169.352Z" fill="#364153"/>
<path d="M229.185 123.45C229.682 123.418 230.181 123.403 230.679 123.404C236.951 123.446 241.877 125.407 246.578 129.624C247.958 130.862 248.988 132.198 250.277 133.499C250.37 131.303 250.225 129.047 250.274 126.842C250.309 125.258 250.753 124.699 252.37 124.7C254.711 124.701 257.031 124.821 259.357 125.028L259.388 175.223C256.805 175.623 252.902 175.933 250.374 175.406C250.183 173.289 250.24 168.993 250.394 166.849C248.795 168.268 247.697 169.899 245.777 171.544C241.281 174.924 237.378 176.864 231.611 177.117C224.156 177.408 216.89 174.731 211.419 169.678C200.588 159.717 200.089 142.779 210.134 132.076C215.095 126.812 221.942 123.713 229.185 123.45ZM233.246 169.339C243.88 168.128 251.501 158.538 250.241 147.952C248.981 137.366 239.321 129.816 228.697 131.114C218.135 132.405 210.608 141.958 211.86 152.482C213.113 163.007 222.673 170.543 233.246 169.339Z" fill="#364153"/>
<path d="M435.45 123.598C435.564 123.576 435.619 123.572 435.734 123.565C443.107 123.097 449.733 124.413 455.379 129.485C460.685 134.249 463.102 141.329 464.156 148.212C464.383 149.697 464.446 152.152 464.522 153.705C450.01 153.924 435.191 153.725 420.652 153.736C420.468 153.985 420.389 154.336 420.447 154.647C423.272 169.974 441.422 175.886 451.942 163.597L453.281 161.767C456.343 161.646 459.809 161.733 462.896 161.771C462.188 163.498 461.399 164.82 460.277 166.328C451.028 178.366 433.381 180.614 421.446 171.261C406.696 159.702 408.053 137.232 423.945 127.496C427.793 125.138 430.969 124.199 435.45 123.598ZM420.408 146.686C426.05 146.913 433.18 146.697 438.977 146.703L449.786 146.729C451.352 146.737 453.898 146.834 455.393 146.751C455.016 141.634 453.439 137.775 449.457 134.339C446.364 131.667 441.186 129.804 437.082 130.347C428.549 130.763 420.977 138.257 420.408 146.686Z" fill="#364153"/>
<path d="M148.333 123.518C153.023 123.356 157.922 123.598 162.511 123.473C172.627 123.196 181.369 123.362 189.141 130.817C194.938 136.378 197.009 141.762 197.331 149.545L197.378 147.147C197.721 149.191 197.795 151.108 197.369 153.154L197.324 151.135C196.968 158.959 194.685 164.482 188.782 169.975C179.616 178.505 168.915 177.024 157.404 177.021C157.185 178.764 157.279 181.223 157.286 183.043L157.303 192.239C157.305 193.272 157.213 199.574 157.314 200.257C156.208 200.518 149.522 200.531 148.323 199.957L148.3 179.997C148.298 176.743 148.151 172.154 148.386 169.029L162.296 169.036C170.107 169.065 177.493 169.986 183.324 163.941C192.915 153.997 189.136 134.82 174.752 131.861C171.534 131.2 168.626 131.369 165.382 131.363C159.932 131.213 153.748 131.626 148.377 131.364C148.255 128.658 148.278 126.23 148.333 123.518Z" fill="#364153"/>
<path d="M395.792 99.5181C398.566 99.5928 401.355 99.5049 404.149 99.5834C404.414 101.76 404.309 106.566 404.311 108.925L404.295 126.272L404.274 159.858C404.272 161.657 404.469 174.671 404.048 175.289L403.353 175.341C400.17 175.722 398.621 175.715 395.426 175.391C395.044 169.864 395.255 162.415 395.26 156.762V125.196L395.258 107.208C395.265 104.965 395.257 102.436 395.356 100.183C395.376 99.7503 395.514 99.7116 395.792 99.5181Z" fill="#364153"/>
<path d="M148.311 136.389L150.554 136.312C150.845 137.835 150.996 139.252 151.573 140.785C152.93 144.394 155.887 147.213 159.573 148.406C160.796 148.765 162.403 148.508 163.311 149.52C163.656 149.763 163.554 151.329 163.215 151.46C162.901 151.581 162.105 151.699 161.755 151.746C157.743 152.275 154.403 154.533 152.385 158.025C151.206 160.065 150.93 162.016 150.526 164.329L148.409 164.282C148.171 162.899 147.971 161.343 147.497 159.995C146.167 156.174 142.939 153.143 139.02 152.092C137.598 151.711 135.175 152.098 135.396 150.092C135.36 149.923 135.65 149.076 135.769 149.058C138.634 148.618 140.861 148.212 143.192 146.418C146.791 143.648 147.829 140.691 148.311 136.389Z" fill="#364153"/>
<path d="M376.998 121.812C376.825 120.39 376.927 100.004 377.023 99.7427L377.513 99.6221C377.728 102.824 377.412 108.14 377.526 111.545C377.581 113.156 377.64 119.585 377.505 120.903L377.376 120.925L377.207 120.313C377.02 120.565 377.051 121.405 376.998 121.812Z" fill="#364153"/>
<path d="M148.323 199.957C149.522 200.531 156.208 200.517 157.314 200.256C157.261 200.6 157.23 200.65 157.088 200.972C156.27 201.122 149.667 201.059 148.668 200.986C148.298 200.602 148.406 200.598 148.323 199.957Z" fill="#364153"/>
<path d="M329.92 154.149C329.198 152.847 329.596 147.373 329.97 145.758C330.313 146.531 329.989 152.706 330.047 154.04L329.92 154.149Z" fill="#364153"/>
<path d="M377.376 120.926L377.505 120.904C377.501 122.257 377.7 131.197 377.287 131.767C377.171 131.402 377.34 121.898 377.376 120.926Z" fill="#364153"/>
</g>
<defs>
<clipPath id="clip0_3666_2832">
<rect width="330" height="101" fill="white" transform="translate(135 100)"/>
</clipPath>
</defs>
</svg>
